X: 141
T:Irish Washerwoman
% Nottingham Music Database
S:Trad, via EF
Y:AB
M:6/8
K:G
P:A
d/2c/2|"G"BGG DGG|"G"BGB dcB|"Am"cAA EAA|"D7"cAc edc|
"G"BGG DGG|"G"BGB dcB|"C"cBc "D7"Adc|"G"BGG G2:|
P:B
g|"G"gdg gdg|"G"gdg bag|"D7"fdf fdf|"D7"fdf agf|
"C"egg "G/b"dgg|"D7/a"cgg "G"BgB|"C"cBc "D7"Adc|"G"BGG G2:|


